svg/color/equa.svg

<svg height="32" viewBox="0 0 32 32" width="32" xmlns="http://www.w3.org/2000/svg"><g fill="none" fill-rule="nonzero"><circle cx="16" cy="16" fill="#f68922" r="16"/><path d="m16.7191076 10.0782274s-4.1258354.6057866-4.7275197 5.1924565c0 0-.6377854 5.134474 4.6080424 6.5199945.3634024.0956553.7374997.143936 1.113116.1436579h.2578647c.5342747-.0002295 1.0467448.2132963 1.4246146.5935802.3778699.3802838.5901685.8961568.5901684 1.4340741.0042835 1.0602848-.8064423 1.9434255-1.8566259 2.0224618-2.5786472.1730819-6.0400512-1.0921467-8.28605286-4.136657 0 0-4.39831247-6.3252774.39539256-12.13650156 1.1338301-1.38356916 2.6087543-2.44299026 4.2771161-3.0722034 1.9700864-.73732882 4.8555925-1.21157317 7.361178.75636782 0 0 3.3522413 2.59622823 1.6331432 6.83673434 0 0-1.2033687 3.3750967-5.3292041 3.6347195l-.5733192-.0320201c-.5484225-.0138741-1.0641094-.2657826-1.4143548-.6908998-.3502454-.4251173-.5008459-.9819283-.4130465-1.5271445.1461517-.9041394.9085237-1.5769879 1.8179463-1.6044691l.5827742-.0398088s1.9769628-.086541 1.805053-2.4231464c0 0-.1719098-2.07698255-3.2662864-1.471196" fill="#fff"/></g></svg>

<svg xmlns="http://www.w3.org/2000/svg" width="32" height="32" viewBox="0 0 32 32">
  <g fill="none" fill-rule="evenodd">
    <circle cx="16" cy="16" r="16" fill="#F68922" fill-rule="nonzero"/>
    <path fill="#FFF" fill-rule="nonzero" d="M16.7191076,10.0782274 C16.7191076,10.0782274 12.5932722,10.684014 11.9915879,15.2706839 C11.9915879,15.2706839 11.3538025,20.4051579 16.5996303,21.7906784 C16.9630327,21.8863337 17.33713,21.9346144 17.7127463,21.9343363 L17.970611,21.9343363 C18.5048857,21.9341068 19.0173558,22.1476326 19.3952256,22.5279165 C19.7730955,22.9082003 19.9853941,23.4240733 19.985394,23.9619906 C19.9896775,25.0222754 19.1789517,25.9054161 18.1287681,25.9844524 C15.5501209,26.1575343 12.0887169,24.8923057 9.84271524,21.8477954 C9.84271524,21.8477954 5.44440277,15.522518 10.2381078,9.71129384 C11.3719379,8.32772468 12.8468621,7.26830358 14.5152239,6.63909044 C16.4853103,5.90176162 19.3708164,5.42751727 21.8764019,7.39545826 C21.8764019,7.39545826 25.2286432,9.99168649 23.5095451,14.2321926 C23.5095451,14.2321926 22.3061764,17.6072893 18.180341,17.8669121 L17.6070218,17.834892 C17.0585993,17.8210179 16.5429124,17.5691094 16.192667,17.1439922 C15.8424216,16.7188749 15.6918211,16.1620639 15.7796205,15.6168477 C15.9257722,14.7127083 16.6881442,14.0398598 17.5975668,14.0123786 L18.180341,13.9725698 C18.180341,13.9725698 20.1573038,13.8860288 19.985394,11.5494234 C19.985394,11.5494234 19.8134842,9.47244085 16.7191076,10.0782274"/>
  </g>
</svg>
